static/app-icons/light-theme/MigrationServices.svg

<svg xmlns="http://www.w3.org/2000/svg" viewBox="0 0 32 32"><defs><linearGradient id="linear-gradient" x1="-533.5" y1="6792.5" x2="-513.5" y2="6792.5" gradientTransform="translate(539.5 -6769.5)" gradientUnits="userSpaceOnUse"><stop offset="0" stop-opacity="0"/><stop offset=".4"/><stop offset=".6"/><stop offset="1" stop-opacity="0"/></linearGradient><linearGradient id="linear-gradient-2" y1="32" x2="32" gradientUnits="userSpaceOnUse"><stop offset=".1" stop-color="#a56eff"/><stop offset=".9" stop-color="#0f62fe"/></linearGradient><style>.cls-1{fill:#fff}.cls-5{fill:#001d6c}</style><mask id="mask" x="0" y="0" width="32" height="32" maskUnits="userSpaceOnUse"><path class="cls-1" d="M26 22H6a2 2 0 00-2 2v4a2 2 0 002 2h20a2 2 0 002-2v-4a2 2 0 00-2-2zm0 6H6v-4h20zM26 2H6a2 2 0 00-2 2v4a2 2 0 002 2h20a2 2 0 002-2V4a2 2 0 00-2-2zm0 6H6V4h20z"/><path transform="rotate(180 16 23)" fill="url(#linear-gradient)" d="M6 21h20v4H6z"/></mask></defs><g id="Layer_2" data-name="Layer 2"><g id="Light_theme_icons" data-name="Light theme icons"><g mask="url(#mask)"><path fill="url(#linear-gradient-2)" d="M0 0h32v32H0z"/></g><circle class="cls-5" cx="23" cy="26" r="1"/><circle class="cls-5" cx="9" cy="6" r="1"/><path class="cls-5" d="M17 26V15.828l2.586 2.586L21 17l-5-5-5 5 1.414 1.414L15 15.828V26h2z"/></g></g></svg>

<svg xmlns="http://www.w3.org/2000/svg" xmlns:xlink="http://www.w3.org/1999/xlink" viewBox="0 0 32 32"><defs><style>.cls-1{fill:#fff;}.cls-2{fill:url(#linear-gradient);}.cls-3{mask:url(#mask);}.cls-4{fill:url(#linear-gradient-2);}.cls-5{fill:#001d6c;}</style><linearGradient id="linear-gradient" x1="-533.5" y1="6792.5" x2="-513.5" y2="6792.5" gradientTransform="translate(539.5 -6769.5)" gradientUnits="userSpaceOnUse"><stop offset="0" stop-opacity="0"/><stop offset="0.4"/><stop offset="0.6"/><stop offset="1" stop-opacity="0"/></linearGradient><mask id="mask" x="0" y="0" width="32" height="32" maskUnits="userSpaceOnUse"><path class="cls-1" d="M26,22H6a2,2,0,0,0-2,2v4a2,2,0,0,0,2,2H26a2,2,0,0,0,2-2V24A2,2,0,0,0,26,22Zm0,6H6V24H26Z"/><path class="cls-1" d="M26,2H6A2,2,0,0,0,4,4V8a2,2,0,0,0,2,2H26a2,2,0,0,0,2-2V4A2,2,0,0,0,26,2Zm0,6H6V4H26Z"/><rect class="cls-2" x="6" y="21" width="20" height="4" transform="translate(32 46) rotate(180)"/></mask><linearGradient id="linear-gradient-2" y1="32" x2="32" gradientUnits="userSpaceOnUse"><stop offset="0.1" stop-color="#a56eff"/><stop offset="0.9" stop-color="#0f62fe"/></linearGradient></defs><g id="Layer_2" data-name="Layer 2"><g id="Light_theme_icons" data-name="Light theme icons"><g class="cls-3"><rect class="cls-4" width="32" height="32"/></g><circle class="cls-5" cx="23" cy="26" r="1"/><circle class="cls-5" cx="9" cy="6" r="1"/><polygon class="cls-5" points="17 26 17 15.828 19.586 18.414 21 17 16 12 11 17 12.414 18.414 15 15.828 15 26 17 26"/></g></g></svg>
